docs/img/ico-person-active.svg

<?xml version="1.0" encoding="utf-8"?>
<svg width="20px" height="24px" viewbox="0 0 20 24" version="1.1" xmlns:xlink="http://www.w3.org/1999/xlink" xmlns="http://www.w3.org/2000/svg">
  <defs>
    <path d="M0 0L11.7549 0L11.7549 11.7538L0 11.7538L0 0Z" id="path_1" />
    <path d="M0 0L18.4745 0L18.4745 10.3334L0 10.3334L0 0Z" transform="translate(0 0.034568734)" id="path_2" />
    <clipPath id="mask_1">
      <use xlink:href="#path_1" />
    </clipPath>
    <clipPath id="mask_2">
      <use xlink:href="#path_2" />
    </clipPath>
  </defs>
  <g id="Group-7" transform="translate(0.15002441 0.14990234)">
    <g id="Group-3" transform="translate(3.3533936 0)">
      <path d="M0 0L11.7549 0L11.7549 11.7538L0 11.7538L0 0Z" id="Clip-2" fill="none" fill-rule="evenodd" stroke="none" />
      <g clip-path="url(#mask_1)">
        <path d="M5.86658 10.0647C8.1628 10.0839 10.0883 8.18707 10.0775 5.89056C10.0665 3.54374 8.17979 1.68538 5.902 1.67002C3.57707 1.65427 1.70843 3.61373 1.68434 5.80445C1.65851 8.14944 3.59647 10.0961 5.86658 10.0647M5.8914 0C9.08637 0.021984 11.7769 2.51472 11.7548 5.9567C11.7343 9.1607 9.17479 11.775 5.81201 11.7537C2.61204 11.7333 -0.0915137 9.17664 0.0023743 5.6111C0.0793663 2.68656 2.52621 0.0168 5.8914 0" id="Fill-1" fill="#FFFFFF" fill-rule="evenodd" stroke="#FFFFFF" stroke-width="0.3" />
      </g>
    </g>
    <g id="Group-6" transform="translate(0 12.428467)">
      <path d="M0 0L18.4745 0L18.4745 10.3334L0 10.3334L0 0Z" transform="translate(0 0.034568734)" id="Clip-5" fill="none" fill-rule="evenodd" stroke="none" />
      <g clip-path="url(#mask_2)">
        <path d="M9.26745 2.0067e-05C12.8648 0.14114 15.5998 1.72917 17.3538 4.90312C18.1334 6.31404 18.4769 7.85407 18.4745 9.46725C18.4739 9.94975 18.1652 10.2876 17.7048 10.33C17.2878 10.3686 16.8759 10.0734 16.8164 9.65964C16.7752 9.37317 16.7898 9.07912 16.7668 8.78949C16.6547 7.38348 16.2382 6.07768 15.4327 4.91359C14.1661 3.08287 12.4182 2.03071 10.2095 1.75836C8.53046 1.55138 6.93667 1.83084 5.45942 2.67199C3.91574 3.55087 2.85647 4.84908 2.2174 6.49807C1.84415 7.46133 1.68451 8.46415 1.67251 9.49394C1.66799 9.88053 1.45535 10.1725 1.1062 10.2874C0.548251 10.471 0.00767465 10.081 0.000666645 9.47916C-0.00931735 8.62812 0.0926346 7.78821 0.320539 6.96866C1.16063 3.94696 2.99999 1.79772 5.92569 0.621908C6.99129 0.193748 8.10931 -0.00228393 9.26745 2.0067e-05" transform="translate(-1.3845347E-05 0.034568734)" id="Fill-4" fill="#FFFFFF" fill-rule="evenodd" stroke="#FFFFFF" stroke-width="0.3" />
      </g>
    </g>
  </g>
</svg>

<svg width="20" height="24" xmlns:xlink="http://www.w3.org/1999/xlink" xmlns="http://www.w3.org/2000/svg"><defs><clipPath id="c"><use xlink:href="#a"/></clipPath><clipPath id="d"><use xlink:href="#b"/></clipPath><path d="M0 0h11.755v11.754H0V0z" id="a"/><path d="M0 0h18.474v10.333H0V0z" transform="translate(0 .035)" id="b"/></defs><path d="M3.503.15h11.755v11.754H3.503V.15z" fill="none"/><g clip-path="url(#c)" transform="translate(3.503 .15)"><path d="M5.867 10.065c2.296.019 4.221-1.878 4.21-4.174-.01-2.347-1.897-4.206-4.175-4.221-2.325-.016-4.194 1.944-4.218 4.134-.025 2.345 1.912 4.292 4.183 4.26M5.89 0c3.195.022 5.886 2.515 5.864 5.957-.02 3.204-2.58 5.818-5.943 5.797-3.2-.02-5.904-2.577-5.81-6.143C.08 2.687 2.526.017 5.892 0" fill="#FFF" fill-rule="evenodd" stroke="#FFF" stroke-width=".3"/></g><path d="M.15 12.613h18.475v10.333H.15V12.613z" fill="none"/><g clip-path="url(#d)" transform="translate(.15 12.578)"><path d="M9.267.035c3.598.14 6.333 1.729 8.087 4.903.78 1.41 1.123 2.95 1.12 4.564 0 .482-.309.82-.77.863-.416.038-.828-.257-.888-.67-.04-.287-.026-.581-.05-.87-.111-1.407-.528-2.713-1.333-3.877-1.267-1.83-3.015-2.883-5.224-3.155-1.679-.207-3.272.072-4.75.914-1.543.878-2.603 2.177-3.242 3.826-.373.963-.533 1.966-.545 2.996-.004.386-.217.678-.566.793-.558.184-1.098-.206-1.105-.808a8.942 8.942 0 01.32-2.51C1.16 3.981 3 1.831 5.926.655a8.833 8.833 0 013.341-.62" fill="#FFF" fill-rule="evenodd" stroke="#FFF" stroke-width=".3"/></g></svg>
